!!!SOCIAL_FUNCTION:	hand game songs
!!!PDT:	1922
!!!OTL: No_95_Hand_Game_Song_(b).krn
!!!REG: Southwest
!!!LANG: Non-Tone
!!!LING_GROUP: Uto-Aztecan
**kern	**kern
*staff2	*staff1
=1-	=1-
*clefF4	*clefF4
*k[f#]	*k[f#]
*M2/4	*M2/4
8GG/L	4d\
8GG/J	.
8GG/L	4B\
8GG/J	.
=2	=2
8GG/L	(8.G\L
8GG/J	.
.	16B\Jk)
8GG/L	4B\
8GG/J	.
=3||	=3||
*M3/4	*M3/4
2.r	4G\
.	4G\
.	8G\
.	16r
.	16d\
=4||	=4||
*M2/4	*M2/4
2r	4d\
.	4B\
=5	=5
2r	(8.G\L
.	16B\Jk)
.	4B\
=6||	=6||
*M3/4	*M3/4
2.r	4G\
.	4G\
.	4G\
=7||	=7||
*M2/4	*M2/4
2r	4G\
.	12F#\L
.	12F#\
.	12F#\J
=8	=8
2r	4G\
.	4F#\
=9	=9
2r	2G\
=10	=10
2r	4d\
.	4B\
=11	=11
2r	(8.G\L
.	16B\Jk)
.	4B\
=12	=12
2r	2G\
=13	=13
2r	2G\
==	==
*-	*-
